T: Glakey Hornpipe, The
M: 6/8
L: 1/8
K: Gmaj
M: 4/4
B>c |(3ded ^c>d B>d (3GAB | (3cdc B>c A>c A>G | (3FAc (3fed (3FAc f>e | (3ded (3cdc B2 B>c |
(3ded ^c>d B>d (3GAB | (3cdc B>c A>c A>G | (3FAc (3fed (3FAc f>e | (3ded (3cBA G2 (3D^C=C ||
(3B,DG (3BGD (3B,DG (3BGD | (3E^DE (3AEA (3cAc e>d | (3d^cd (3fed (3FA=c f>e | (3ded (3cdc B2 (3D^C=C |
(3B,DG (3BGD (3B,DG (3BGD | (3E^DE (3AEA (3cAc e>d | (3d^cd (3fed (3FA=c f>e | (3ded (3cBA G2 |]
